assets/images/members/ibm/ibm.svg

<svg version="1.1" xmlns="http://www.w3.org/2000/svg" xmlns:xlink="http://www.w3.org/1999/xlink" viewBox="0 0 58 23"><g id="Page-1" stroke="none" stroke-width="1" fill="none" fill-rule="evenodd"><g id="ibm-8-bar-logo--h15-copy" fill="#161616"><path d="M58,21.4666667 L58,23 L50.3684211,23 L50.3684211,21.4666667 L58,21.4666667 Z M39.6842105,21.4666667 L39.6842105,23 L32.0526316,23 L32.0526316,21.4666667 L39.6842105,21.4666667 Z M45.6385329,21.4666667 L45.0245693,23 L44.41871,21.4666667 L45.6385329,21.4666667 Z M28.5421053,21.4666667 C27.4471432,22.4188667 26.0029202,23 24.3905263,23 L24.3905263,23 L12.2105263,23 L12.2105263,21.4666667 Z M10.6842105,21.4666667 L10.6842105,23 L0,23 L0,21.4666667 L10.6842105,21.4666667 Z M39.6842105,18.4 L39.6842105,19.9333333 L32.0526316,19.9333333 L32.0526316,18.4 L39.6842105,18.4 Z M46.8318522,18.4 L46.2377311,19.9333333 L43.8212353,19.9333333 L43.2226426,18.4 L46.8318522,18.4 Z M30.0684211,18.4 C29.9306437,18.9451697 29.7105614,19.4599515 29.4273684,19.9333333 L29.4273684,19.9333333 L12.2105263,19.9333333 L12.2105263,18.4 Z M10.6842105,18.4 L10.6842105,19.9333333 L0,19.9333333 L0,18.4 L10.6842105,18.4 Z M58,18.4 L58,19.9333333 L50.3684211,19.9333333 L50.3684211,18.4 L58,18.4 Z M54.9473684,15.3333333 L54.9473684,16.8666667 L50.3684211,16.8666667 L50.3684211,15.3333333 L54.9473684,15.3333333 Z M39.6842105,15.3333333 L39.6842105,16.8666667 L35.1052632,16.8666667 L35.1052632,15.3333333 L39.6842105,15.3333333 Z M48.0292704,15.3333333 L47.4295831,16.8666667 L42.6233978,16.8666667 L42.019006,15.3333333 L48.0292704,15.3333333 Z M29.8547368,15.3333333 C29.991899,15.8221879 30.0684211,16.3357152 30.0684211,16.8666667 L30.0684211,16.8666667 L24.4210526,16.8666667 L24.4210526,15.3333333 Z M19.8421053,15.3333333 L19.8421053,16.8666667 L15.2631579,16.8666667 L15.2631579,15.3333333 L19.8421053,15.3333333 Z M7.63157895,15.3333333 L7.63157895,16.8666667 L3.05263158,16.8666667 L3.05263158,15.3333333 L7.63157895,15.3333333 Z M54.9473684,12.2666667 L54.9473684,13.8 L50.3684211,13.8 L50.3684211,12.2666667 L54.9473684,12.2666667 Z M39.6842105,12.2666667 L39.6842105,13.8 L35.1052632,13.8 L35.1052632,12.2666667 L39.6842105,12.2666667 Z M49.2252679,12.2666667 L48.6284686,13.8 L41.4089474,13.8 L40.8168134,12.2666667 L49.2252679,12.2666667 Z M27.9773684,12.2666667 C28.5037637,12.6994848 28.9570701,13.2181697 29.3052632,13.8 L29.3052632,13.8 L15.2631579,13.8 L15.2631579,12.2666667 Z M7.63157895,12.2666667 L7.63157895,13.8 L3.05263158,13.8 L3.05263158,12.2666667 L7.63157895,12.2666667 Z M44.5987396,9.2 L45.0263158,10.4393515 L45.4535426,9.2 L54.9473684,9.2 L54.9473684,10.7333333 L50.3684211,10.7333333 L50.3684211,9.32433939 L49.8494737,10.7333333 L40.1878947,10.7333333 L39.6842105,9.3242 L39.6842105,10.7333333 L35.1052632,10.7333333 L35.1052632,9.2 L44.5987396,9.2 Z M7.63157895,9.2 L7.63157895,10.7333333 L3.05263158,10.7333333 L3.05263158,9.2 L7.63157895,9.2 Z M29.3052632,9.2 C28.9570701,9.7818303 28.5037637,10.3003758 27.9773684,10.7333333 L27.9773684,10.7333333 L15.2631579,10.7333333 L15.2631579,9.2 Z M54.9473684,6.13333333 L54.9473684,7.66666667 L45.9831118,7.66666667 L46.5234001,6.13333333 L54.9473684,6.13333333 Z M43.534302,6.13333333 L44.0745993,7.66666667 L35.1052632,7.66666667 L35.1052632,6.13333333 L43.534302,6.13333333 Z M30.0684211,6.13333333 C30.0684211,6.66414545 29.991899,7.17767273 29.8547368,7.66666667 L29.8547368,7.66666667 L24.4210526,7.66666667 L24.4210526,6.13333333 Z M19.8421053,6.13333333 L19.8421053,7.66666667 L15.2631579,7.66666667 L15.2631579,6.13333333 L19.8421053,6.13333333 Z M7.63157895,6.13333333 L7.63157895,7.66666667 L3.05263158,7.66666667 L3.05263158,6.13333333 L7.63157895,6.13333333 Z M42.4774196,3.06666667 L43.0079113,4.6 L32.0527757,4.6 L32.0526316,3.06666667 L42.4774196,3.06666667 Z M58,3.06666667 L58,4.6 L47.0390632,4.6 L47.5903678,3.06666667 L58,3.06666667 Z M29.4273684,3.06666667 C29.7105614,3.54004848 29.9306437,4.0548303 30.0684211,4.6 L30.0684211,4.6 L12.2105263,4.6 L12.2105263,3.06666667 Z M10.6842105,3.06666667 L10.6842105,4.6 L0,4.6 L0,3.06666667 L10.6842105,3.06666667 Z M41.4056725,0 L41.9462722,1.53333333 L32.05278,1.53333333 L32.0526316,0 L41.4056725,0 Z M58,0 L58,1.53333333 L48.1188427,1.53333333 L48.6466706,0 L58,0 Z M24.3905263,0 C25.9912083,0 27.4472798,0.581133333 28.5421053,1.53333333 L28.5421053,1.53333333 L12.2105263,1.53333333 L12.2105263,0 Z M10.6842105,0 L10.6842105,1.53333333 L0,1.53333333 L0,0 L10.6842105,0 Z" id="Combined-Shape"></path></g></g></svg>

<svg xmlns="http://www.w3.org/2000/svg" viewBox="0 0 58 23"><path fill="#161616" fill-rule="evenodd" d="M58 21.467V23h-7.632v-1.533zm-18.316 0V23h-7.631v-1.533zm5.955 0L45.025 23l-.606-1.533zm-17.097 0A6.29 6.29 0 0 1 24.391 23H12.21v-1.533Zm-17.858 0V23H0v-1.533zm29-3.067v1.533h-7.631V18.4zm7.148 0-.594 1.533H43.82l-.598-1.533zm-16.764 0a5.7 5.7 0 0 1-.64 1.533H12.21V18.4Zm-19.384 0v1.533H0V18.4zM58 18.4v1.533h-7.632V18.4zm-3.053-3.067v1.534h-4.579v-1.534zm-15.263 0v1.534h-4.579v-1.534zm8.345 0-.6 1.534h-4.806l-.604-1.534zm-18.174 0c.137.49.213 1.003.213 1.534h-5.647v-1.534Zm-10.013 0v1.534h-4.579v-1.534zm-12.21 0v1.534h-4.58v-1.534zm47.315-3.066V13.8h-4.579v-1.533zm-15.263 0V13.8h-4.579v-1.533zm9.541 0-.597 1.533h-7.22l-.591-1.533zm-21.248 0c.527.432.98.951 1.328 1.533H15.263v-1.533Zm-20.345 0V13.8h-4.58v-1.533zM44.599 9.2l.427 1.24.428-1.24h9.493v1.533h-4.579V9.324l-.519 1.41h-9.661l-.504-1.41v1.41h-4.579V9.2zm-36.967 0v1.533h-4.58V9.2zm21.673 0a6 6 0 0 1-1.328 1.533H15.263V9.2Zm25.642-3.067v1.534h-8.964l.54-1.534zm-11.413 0 .54 1.534h-8.969V6.133zm-13.466 0c0 .531-.076 1.045-.213 1.534H24.42V6.133Zm-10.226 0v1.534h-4.579V6.133zm-12.21 0v1.534h-4.58V6.133zm34.845-3.066.53 1.533H32.054V3.067zm15.523 0V4.6H47.04l.55-1.533zm-28.573 0c.284.473.504.988.641 1.533H12.211V3.067Zm-18.743 0V4.6H0V3.067zM41.406 0l.54 1.533h-9.893V0zM58 0v1.533h-9.881L48.647 0zM24.39 0c1.601 0 3.057.581 4.152 1.533H12.211V0ZM10.685 0v1.533H0V0z"/></svg>
